dest/img/img-trust-5.svg

<svg fill="none" height="40" viewBox="0 0 140 40" width="140" xmlns="http://www.w3.org/2000/svg"><g fill="#576472"><path d="m52.2342 17.7725c-2.562 0-4.158 1.9024-4.158 5.1967 0 3.0285 1.4 5.3576 4.116 5.3576 2.604 0 4.312-2.0983 4.312-5.4346 0-3.5321-1.904-5.1197-4.27-5.1197zm68.6698 8.8057c0 1.1261.546 2.0213 2.058 2.0213 1.785 0 3.689-1.2799 3.808-4.1895-.812-.1189-1.708-.2308-2.527-.2308-1.785-.007-3.339.4966-3.339 2.399z"/><path d="m0 0v40h140v-40zm40.733 31.7818h-7.343v-9.8549c0-3.0285-1.008-4.1895-2.989-4.1895-2.408 0-3.381 1.7066-3.381 4.1545v6.085h2.331v3.8049h-7.336v-9.8549c0-3.0285-1.008-4.1895-2.989-4.1895-2.408 0-3.381 1.7066-3.381 4.1545v6.085h3.339v3.8049h-10.675v-3.8049h2.331v-9.8968h-2.331v-3.8049h7.336v2.6368c1.05-1.8604 2.877-2.9865 5.32-2.9865 2.527 0 4.851 1.203 5.712 3.7629.973-2.3291 2.954-3.7629 5.712-3.7629 3.143 0 6.02 1.9024 6.02 6.05v8.0014h2.331v3.8049zm11.305.3847c-5.397 0-9.128-3.2943-9.128-8.8827 0-5.1198 3.108-9.3513 9.401-9.3513s9.359 4.2245 9.359 9.1135c0 5.5884-4.039 9.1205-9.632 9.1205zm28.245-.3847h-15.302l-.504-2.6368 9.632-11.0579h-5.474l-.777 2.7137-3.612-.3916.623-6.134h15.379l.392 2.6368-9.716 11.0649h5.67l.819-2.7137 3.962.3846zm9.996 0h-5.243v-6.2878h5.243zm0-11.2188h-5.243v-6.2878h5.243zm3.276 11.2188 7.574-26.697h4.935l-7.574 26.697zm10.178 0 7.567-26.697h4.935l-7.574 26.697zm26.88.3847c-2.331 0-3.612-1.3569-3.843-3.4902-1.008 1.7836-2.793 3.4902-5.628 3.4902-2.527 0-5.397-1.3569-5.397-5.0079 0-4.3085 4.158-5.3156 8.155-5.3156.961-.0066 1.922.0447 2.877.1539v-.5806c0-1.7835-.042-3.9167-2.877-3.9167-1.05 0-1.862.0769-2.681.5035l-.567 1.9724-3.997-.4266.686-4.0287c3.066-1.245 4.62-1.5877 7.497-1.5877 3.766 0 6.951 1.9374 6.951 5.9381v7.6027c0 1.0072.392 1.3569 1.204 1.3569.249-.0046.497-.0447.735-.1189l.042 2.6368c-.97.525-2.054.8059-3.157.8184z"/></g></svg>

<svg width="140" height="40" viewBox="0 0 140 40" fill="none" xmlns="http://www.w3.org/2000/svg">
<path d="M52.2342 17.7725C49.6722 17.7725 48.0762 19.6749 48.0762 22.9692C48.0762 25.9977 49.4762 28.3268 52.1922 28.3268C54.7962 28.3268 56.5042 26.2285 56.5042 22.8922C56.5042 19.3601 54.6002 17.7725 52.2342 17.7725ZM120.904 26.5782C120.904 27.7043 121.45 28.5995 122.962 28.5995C124.747 28.5995 126.651 27.3196 126.77 24.41C125.958 24.2911 125.062 24.1792 124.243 24.1792C122.458 24.1722 120.904 24.6758 120.904 26.5782Z" fill="#576472"/>
<path d="M0 0V40H140V0H0ZM40.733 31.7818H33.39V21.9269C33.39 18.8984 32.382 17.7374 30.401 17.7374C27.993 17.7374 27.02 19.444 27.02 21.8919V27.9769H29.351V31.7818H22.015V21.9269C22.015 18.8984 21.007 17.7374 19.026 17.7374C16.618 17.7374 15.645 19.444 15.645 21.8919V27.9769H18.984V31.7818H8.309V27.9769H10.64V18.0801H8.309V14.2752H15.645V16.912C16.695 15.0516 18.522 13.9255 20.965 13.9255C23.492 13.9255 25.816 15.1285 26.677 17.6884C27.65 15.3593 29.631 13.9255 32.389 13.9255C35.532 13.9255 38.409 15.8279 38.409 19.9755V27.9769H40.74V31.7818H40.733ZM52.038 32.1665C46.641 32.1665 42.91 28.8722 42.91 23.2838C42.91 18.164 46.018 13.9325 52.311 13.9325C58.604 13.9325 61.67 18.157 61.67 23.046C61.67 28.6344 57.631 32.1665 52.038 32.1665ZM80.283 31.7818H64.981L64.477 29.145L74.109 18.0871H68.635L67.858 20.8008L64.246 20.4092L64.869 14.2752H80.248L80.64 16.912L70.924 27.9769H76.594L77.413 25.2632L81.375 25.6478L80.283 31.7818ZM90.279 31.7818H85.036V25.494H90.279V31.7818ZM90.279 20.563H85.036V14.2752H90.279V20.563ZM93.555 31.7818L101.129 5.0848H106.064L98.49 31.7818H93.555ZM103.733 31.7818L111.3 5.0848H116.235L108.661 31.7818H103.733ZM130.613 32.1665C128.282 32.1665 127.001 30.8096 126.77 28.6763C125.762 30.4599 123.977 32.1665 121.142 32.1665C118.615 32.1665 115.745 30.8096 115.745 27.1586C115.745 22.8501 119.903 21.843 123.9 21.843C124.861 21.8364 125.822 21.8877 126.777 21.9969V21.4163C126.777 19.6328 126.735 17.4996 123.9 17.4996C122.85 17.4996 122.038 17.5765 121.219 18.0031L120.652 19.9755L116.655 19.5489L117.341 15.5202C120.407 14.2752 121.961 13.9325 124.838 13.9325C128.604 13.9325 131.789 15.8699 131.789 19.8706V27.4733C131.789 28.4805 132.181 28.8302 132.993 28.8302C133.242 28.8256 133.49 28.7855 133.728 28.7113L133.77 31.3481C132.8 31.8731 131.716 32.154 130.613 32.1665Z" fill="#576472"/>
</svg>
